!!! OTL: Berkowitz622
!!! Chapter: 1
!!! Section: V
!!! Page: 158
!!! Mode: 
!!! Encoder: AR
**kern
*staff1
=1-
!!pagebreak:original
*clefG2
*k[]
*C:
*M5/8
8d/
4dd-\
4b-\
=2
8cc/L
8bn/
8g/J
8b-/L
8f#/J
=3
8d/
4cc\
8a-/L
8b-/J
=4
8dd/L
8cc/
8e-/J
4b-\
=5
4g-/
8a-/
4en/
=6
!!linebreak:original
8f#/L
8gn/
8b-/J
8dd-/L
8e-/J
=7
8cc\L
8b-\
8a-\J
8f#/L
8an/J
=8
*M6/8
4fn/
8a-/
4An/
8r
=9
*M5/8
[4.f#/
4f#/]
==
*-
